src/images/maibornwolff.svg

<svg viewBox="0 0 100 51" xmlns="http://www.w3.org/2000/svg" fill-rule="evenodd" clip-rule="evenodd" stroke-linejoin="round" stroke-miterlimit="2"><g><path d="M.03 203.119c0-7.7 4.54-11.271 10.45-11.271 3.8 0 6.78 1.6 8.52 4.58 1.739-2.98 4.72-4.58 8.52-4.58 5.91 0 10.45 3.571 10.45 11.271v19.289l-5.87.001v-19.29c0-4.12-2.2-5.82-5.09-5.82-2.89 0-5.09 1.74-5.09 5.82v19.29h-5.87v-19.29c0-4.08-2.2-5.82-5.09-5.82-2.89 0-5.09 1.7-5.09 5.82v19.29H0v-19.29h.03zM50.28 204.869c0-8.02 4.58-13.01 13.049-13.01 8.48 0 13.15 4.99 13.15 13.01v17.55h-5.86v-8.98H56.01v8.98h-5.73v-17.55zm20.339 3.25v-3.25c0-4.81-2.38-7.56-7.329-7.56-4.9 0-7.28 2.75-7.28 7.56v3.25h14.609zM89.419 192.019H95.369V222.419H89.419zM108.619 192.019h14.55c5.76 0 8.78 3.3 8.78 7.9 0 3.07-1.44 5.439-3.95 6.69v.09c3.35 1.07 5.35 3.86 5.35 7.48 0 4.74-3.07 8.23-8.97 8.23h-15.76v-30.39zm13.8 12.31c2.46 0 3.63-1.49 3.63-3.39 0-1.95-.93-3.39-3.67-3.39h-7.81v6.789h7.85v-.009zm.93 12.6c2.79 0 3.9-1.63 3.9-3.62 0-2.05-1.39-3.67-3.86-3.67l-8.83-.001v7.3h8.79v-.009zM143.109 207.179c0-8.93 6.56-15.49 15.86-15.49s15.859 6.56 15.859 15.49c0 8.929-6.559 15.489-15.859 15.489s-15.86-6.55-15.86-15.489zm25.79 0c0-5.83-4.01-10.07-9.93-10.07-5.921 0-9.93 4.24-9.93 10.07 0 5.829 4.009 10.12 9.93 10.12 5.92 0 9.93-4.28 9.93-10.12zM187.139 192.019h12.739c7.72 0 11.11 4.23 11.11 10.04 0 4.79-2.28 8.09-6.37 9.44l7.48 10.919h-7.07l-6.46-10.269h-5.489v10.269h-5.95v-30.4h.01v.001zm12.82 14.59c3.76 0 5.019-1.95 5.019-4.55 0-2.6-1.26-4.51-5.019-4.51h-6.88v9.06h6.88zM222.508 204.359c0-7.7 4.601-12.51 12.92-12.51 8.32 0 12.92 4.81 12.92 12.51v18.05h-5.95v-18.05c0-4.44-2.32-7.06-6.97-7.06s-6.97 2.61-6.97 7.06v18.05h-5.95v-18.05zM260.818 211.329v-19.31h5.87v19.31c0 4.13 2.2 5.83 5.09 5.83 2.89 0 5.09-1.74 5.09-5.83v-19.31h5.87v19.31c0 4.08 2.2 5.83 5.09 5.83 2.89 0 5.09-1.7 5.09-5.83v-19.31h5.87v19.31c0 7.71-4.54 11.28-10.46 11.28-3.81 0-6.79-1.61-8.53-4.59-1.74 2.98-4.73 4.59-8.53 4.59-5.91 0-10.45-3.57-10.45-11.28zM309.628 207.179c0-8.95 6.58-15.53 15.899-15.53 9.32 0 15.9 6.58 15.9 15.53 0 8.949-6.58 15.529-15.9 15.529-9.319 0-15.899-6.58-15.899-15.529zm25.849 0c0-5.85-4.02-10.1-9.959-10.1-5.94 0-9.96 4.249-9.96 10.1 0 5.849 4.02 10.139 9.96 10.139 5.939 0 9.959-4.3 9.959-10.139zM353.648 192.019h5.949v24.91h15.9v5.49h-21.849v-30.4zM386.797 192.019h22.03v5.529l-16.08.001v6.69h13.39v5.39h-13.39v12.78h-5.95v-30.39zM420.257 192.019h22.03v5.529l-16.08.001v6.69h13.39v5.39h-13.39v12.78h-5.95v-30.39z" fill="rgb(10,10,10)" transform="matrix(.2261 0 0 .2261 0 0)"/><path d="M199.749 49.33h.009c.09-16.8 8.54-31.61 21.4-40.52-8-5.54-17.7-8.809-28.17-8.809-27.299 0-49.429 22.059-49.569 49.329h-.01v87.469l42.82.001V49.58a6.76 6.76 0 0113.52-.02v-.23z" fill="url(#a)" transform="matrix(.2261 0 0 .2261 0 0)"/><path d="M298.888 49.33C298.748 22.07 276.618 0 249.318 0s-49.43 22.06-49.57 49.33h-.009v87.469h42.819V49.56c0-2.62 1.44-5.12 3.85-6.14 4.93-2.08 9.67 1.48 9.67 6.15v87.219h42.819V49.32h-.009v.01z" fill="url(#b)" transform="matrix(.2261 0 0 .2261 0 0)"/></g><defs><linearGradient id="a" x1="0" y1="0" x2="1" y2="0" gradientUnits="userSpaceOnUse" gradientTransform="matrix(53.9998 13 -13 53.9998 143.849 61.19)"><stop offset="0" stop-color="rgb(255,44,164)"/><stop offset=".25" stop-color="rgb(255,33,157)"/><stop offset=".68" stop-color="rgb(255,2,140)"/><stop offset="1" stop-color="rgb(255,0,139)"/></linearGradient><linearGradient id="b" x1="0" y1="0" x2="1" y2="0" gradientUnits="userSpaceOnUse" gradientTransform="translate(202.848 68.19) scale(96.9992)"><stop offset="0" stop-color="rgb(55,212,255)"/><stop offset=".15" stop-color="rgb(49,217,236)"/><stop offset=".43" stop-color="rgb(34,228,188)"/><stop offset=".84" stop-color="rgb(10,247,112)"/><stop offset="1" stop-color="rgb(0,255,79)"/></linearGradient></defs></svg>

<?xml version="1.0" encoding="UTF-8" standalone="no"?>
<!DOCTYPE svg PUBLIC "-//W3C//DTD SVG 1.1//EN" "http://www.w3.org/Graphics/SVG/1.1/DTD/svg11.dtd">
<svg width="100%" height="100%" viewBox="0 0 100 51" version="1.1" xmlns="http://www.w3.org/2000/svg"
     xml:space="preserve"
     style="fill-rule:evenodd;clip-rule:evenodd;stroke-linejoin:round;stroke-miterlimit:2;">
    <g transform="matrix(0.226098,0,0,0.226098,-7.45286e-05,0)">
        <g id="Ebene_x0020_1">
            <g>
                <path d="M0.03,203.119C0.03,195.419 4.57,191.848 10.48,191.848C14.28,191.848 17.26,193.448 19,196.428C20.739,193.448 23.72,191.848 27.52,191.848C33.43,191.848 37.97,195.419 37.97,203.119L37.97,222.408L32.1,222.409L32.1,203.119C32.1,198.999 29.9,197.299 27.01,197.299C24.12,197.299 21.92,199.039 21.92,203.119L21.92,222.409L16.05,222.409L16.05,203.119C16.05,199.039 13.85,197.299 10.96,197.299C8.07,197.299 5.87,198.999 5.87,203.119L5.87,222.409L0,222.409L0,203.119L0.03,203.119Z" style="fill:rgb(10,10,10);"/>
                <path d="M50.28,204.869C50.28,196.849 54.86,191.859 63.329,191.859C71.809,191.859 76.479,196.849 76.479,204.869L76.479,222.419L70.619,222.419L70.619,213.439L56.01,213.439L56.01,222.419L50.28,222.419L50.28,204.869ZM70.619,208.119L70.619,204.869C70.619,200.059 68.239,197.309 63.29,197.309C58.39,197.309 56.01,200.059 56.01,204.869L56.01,208.119L70.619,208.119Z" style="fill:rgb(10,10,10);"/>
                <rect x="89.419" y="192.019" width="5.95" height="30.4" style="fill:rgb(10,10,10);"/>
                <path d="M108.619,192.019L123.169,192.019C128.929,192.019 131.949,195.319 131.949,199.919C131.949,202.989 130.509,205.358 127.999,206.609L127.999,206.699C131.349,207.769 133.349,210.559 133.349,214.179C133.349,218.919 130.279,222.409 124.379,222.409L108.619,222.409L108.619,192.019ZM122.419,204.329C124.879,204.329 126.049,202.839 126.049,200.939C126.049,198.989 125.119,197.549 122.379,197.549L114.569,197.549L114.569,204.338L122.419,204.338L122.419,204.329ZM123.349,216.929C126.139,216.929 127.249,215.299 127.249,213.309C127.249,211.259 125.859,209.639 123.389,209.639L114.559,209.638L114.559,216.938L123.349,216.938L123.349,216.929Z" style="fill:rgb(10,10,10);"/>
                <path d="M143.109,207.179C143.109,198.249 149.669,191.689 158.969,191.689C168.269,191.689 174.828,198.249 174.828,207.179C174.828,216.108 168.269,222.668 158.969,222.668C149.669,222.668 143.109,216.118 143.109,207.179ZM168.899,207.179C168.899,201.349 164.889,197.109 158.969,197.109C153.048,197.109 149.039,201.349 149.039,207.179C149.039,213.008 153.048,217.299 158.969,217.299C164.889,217.299 168.899,213.019 168.899,207.179Z" style="fill:rgb(10,10,10);"/>
                <path d="M187.139,192.019L199.878,192.019C207.598,192.019 210.988,196.249 210.988,202.059C210.988,206.849 208.708,210.149 204.618,211.499L212.098,222.418L205.028,222.418L198.568,212.149L193.079,212.149L193.079,222.418L187.129,222.418L187.129,192.018L187.139,192.018L187.139,192.019ZM199.959,206.609C203.719,206.609 204.978,204.659 204.978,202.059C204.978,199.459 203.718,197.549 199.959,197.549L193.079,197.549L193.079,206.609L199.959,206.609Z" style="fill:rgb(10,10,10);"/>
                <path d="M222.508,204.359C222.508,196.659 227.109,191.849 235.428,191.849C243.748,191.849 248.348,196.659 248.348,204.359L248.348,222.409L242.398,222.409L242.398,204.359C242.398,199.919 240.078,197.299 235.428,197.299C230.778,197.299 228.458,199.909 228.458,204.359L228.458,222.409L222.508,222.409L222.508,204.359Z" style="fill:rgb(10,10,10);"/>
                <path d="M260.818,211.329L260.818,192.019L266.688,192.019L266.688,211.329C266.688,215.459 268.888,217.159 271.778,217.159C274.668,217.159 276.868,215.419 276.868,211.329L276.868,192.019L282.738,192.019L282.738,211.329C282.738,215.409 284.938,217.159 287.828,217.159C290.718,217.159 292.918,215.459 292.918,211.329L292.918,192.019L298.788,192.019L298.788,211.329C298.788,219.039 294.248,222.609 288.328,222.609C284.518,222.609 281.538,220.999 279.798,218.019C278.058,220.999 275.068,222.609 271.268,222.609C265.358,222.609 260.818,219.039 260.818,211.329Z" style="fill:rgb(10,10,10);"/>
                <path d="M309.628,207.179C309.628,198.229 316.208,191.649 325.527,191.649C334.847,191.649 341.427,198.229 341.427,207.179C341.427,216.128 334.847,222.708 325.527,222.708C316.208,222.708 309.628,216.128 309.628,207.179ZM335.477,207.179C335.477,201.329 331.457,197.079 325.518,197.079C319.578,197.079 315.558,201.328 315.558,207.179C315.558,213.028 319.578,217.318 325.518,217.318C331.457,217.318 335.477,213.018 335.477,207.179Z" style="fill:rgb(10,10,10);"/>
                <path d="M353.648,192.019L359.597,192.019L359.597,216.929L375.497,216.929L375.497,222.419L353.648,222.419L353.648,192.019Z" style="fill:rgb(10,10,10);"/>
                <path d="M386.797,192.019L408.827,192.019L408.827,197.548L392.747,197.549L392.747,204.239L406.137,204.239L406.137,209.629L392.747,209.629L392.747,222.409L386.797,222.409L386.797,192.019Z" style="fill:rgb(10,10,10);"/>
                <path d="M420.257,192.019L442.287,192.019L442.287,197.548L426.207,197.549L426.207,204.239L439.597,204.239L439.597,209.629L426.207,209.629L426.207,222.409L420.257,222.409L420.257,192.019Z" style="fill:rgb(10,10,10);"/>
                <g id="_2564683870528">
                    <g>
                        <path d="M199.749,49.33L199.758,49.33C199.848,32.53 208.298,17.72 221.158,8.81C213.158,3.27 203.458,0.001 192.988,0.001C165.689,0.001 143.559,22.06 143.419,49.33L143.409,49.33L143.409,136.799L186.229,136.8L186.229,49.58C186.229,45.85 189.259,42.82 192.989,42.82C196.719,42.82 199.739,45.84 199.749,49.56L199.749,49.33Z" style="fill:url(#_Linear1);"/>
                    </g>
                    <path d="M298.888,49.33C298.748,22.07 276.618,0 249.318,0C222.018,0 199.888,22.06 199.748,49.33L199.739,49.33L199.739,136.799L242.558,136.799L242.558,49.56C242.558,46.94 243.998,44.44 246.408,43.42C251.338,41.34 256.078,44.9 256.078,49.57L256.078,136.789L298.897,136.789L298.897,49.32L298.888,49.32L298.888,49.33Z" style="fill:url(#_Linear2);"/>
                </g>
            </g>
        </g>
    </g>
    <defs>
        <linearGradient id="_Linear1" x1="0" y1="0" x2="1" y2="0" gradientUnits="userSpaceOnUse" gradientTransform="matrix(53.9998,13,-13,53.9998,143.849,61.1899)"><stop offset="0" style="stop-color:rgb(255,44,164);stop-opacity:1"/><stop offset="0.25" style="stop-color:rgb(255,33,157);stop-opacity:1"/><stop offset="0.68" style="stop-color:rgb(255,2,140);stop-opacity:1"/><stop offset="1" style="stop-color:rgb(255,0,139);stop-opacity:1"/></linearGradient>
        <linearGradient id="_Linear2" x1="0" y1="0" x2="1" y2="0" gradientUnits="userSpaceOnUse" gradientTransform="matrix(96.9992,0,0,96.9992,202.848,68.1897)"><stop offset="0" style="stop-color:rgb(55,212,255);stop-opacity:1"/><stop offset="0.15" style="stop-color:rgb(49,217,236);stop-opacity:1"/><stop offset="0.43" style="stop-color:rgb(34,228,188);stop-opacity:1"/><stop offset="0.84" style="stop-color:rgb(10,247,112);stop-opacity:1"/><stop offset="1" style="stop-color:rgb(0,255,79);stop-opacity:1"/></linearGradient>
    </defs>
</svg>
